X:22
T:Heywood Wake
M:6/8
L:1/8
B:Thompson's Compleat Collection of 200 Favourite Country Dances, vol. 2 (London, 1765)
Z:Transcribed and edited by Flynn Titford-Mock, 2007
Z:abc's:AK/Fiddler's Companion
K:G
G2G GAG | GBG dBG | c2B A2G | FGF AFD | G2G GBG | Bdg g2b | agf ed^c | dAF D3 :|
|: d2d ded | afd afd | g2d c2B | ABG FED | G2G GAG | dBG Bdg | dBG cAF | G3 G3 :|

